assets/svg/categories_social.svg

<svg width="48" height="48" viewBox="0 0 48 48" fill="none" xmlns="http://www.w3.org/2000/svg">
<path d="M42.8681 20.04C41.0728 20.04 39.5531 21.2419 39.0703 22.8834L36.9637 22.7334C36.3656 16.56 31.44 11.6344 25.2666 11.0363L25.1166 8.92969C26.7581 8.44688 27.96 6.92719 27.96 5.13188C27.96 2.94844 26.1834 1.17188 24 1.17188C21.8166 1.17188 20.04 2.94844 20.04 5.13188C20.04 6.92719 21.2419 8.44688 22.8834 8.92969L22.7334 11.0363C16.56 11.6344 11.6344 16.56 11.0363 22.7334L8.92969 22.8834C8.44688 21.2419 6.92719 20.04 5.13188 20.04C2.94844 20.04 1.17188 21.8166 1.17188 24C1.17188 26.1834 2.94844 27.96 5.13188 27.96C6.92719 27.96 8.44688 26.7581 8.92969 25.1166L11.0363 25.2666C11.6344 31.44 16.56 36.3656 22.7334 36.9637L22.8834 39.0703C21.2419 39.5531 20.04 41.0728 20.04 42.8681C20.04 45.0516 21.8166 46.8281 24 46.8281C26.1834 46.8281 27.96 45.0516 27.96 42.8681C27.96 41.0728 26.7581 39.5531 25.1166 39.0703L25.2666 36.9637C31.44 36.3656 36.3656 31.44 36.9637 25.2666L39.0703 25.1166C39.5531 26.7581 41.0728 27.96 42.8681 27.96C45.0516 27.96 46.8281 26.1834 46.8281 24C46.8281 21.8166 45.0516 20.04 42.8681 20.04ZM20.6962 5.13188C20.6962 3.31031 22.1784 1.82812 24 1.82812C25.8216 1.82812 27.3037 3.31031 27.3037 5.13188C27.3037 6.95344 25.8216 8.43469 24 8.43469C22.1784 8.43469 20.6962 6.9525 20.6962 5.13188ZM24 9.09094C24.1584 9.09094 24.3141 9.08063 24.4678 9.06281L24.5494 10.2019C24.2991 9.93937 23.9456 9.77719 23.5575 9.77719H23.4816L23.5322 9.06281C23.6859 9.08063 23.8416 9.09094 24 9.09094ZM5.13188 27.3037C3.31031 27.3037 1.82812 25.8216 1.82812 24C1.82812 22.1784 3.31031 20.6962 5.13188 20.6962C6.95344 20.6962 8.43469 22.1784 8.43469 24C8.43469 25.8216 6.9525 27.3037 5.13188 27.3037ZM9.06281 23.5322L10.2019 23.4506C9.93937 23.7009 9.77719 24.0544 9.77719 24.4425V24.5184L9.06281 24.4678C9.08063 24.3141 9.09094 24.1584 9.09094 24C9.09094 23.8416 9.08063 23.6859 9.06281 23.5322ZM27.3037 42.8681C27.3037 44.6897 25.8216 46.1719 24 46.1719C22.1784 46.1719 20.6962 44.6897 20.6962 42.8681C20.6962 41.0466 22.1784 39.5653 24 39.5653C25.8216 39.5653 27.3037 41.0475 27.3037 42.8681ZM24 38.9091C23.8416 38.9091 23.6859 38.9194 23.5322 38.9372L23.4506 37.7981C23.7009 38.0606 24.0544 38.2228 24.4425 38.2228H24.5184L24.4678 38.9372C24.3141 38.9194 24.1584 38.9091 24 38.9091ZM24 36.3694C17.1797 36.3694 11.6306 30.8203 11.6306 24C11.6306 17.1797 17.1797 11.6306 24 11.6306C30.8203 11.6306 36.3694 17.1797 36.3694 24C36.3694 30.8203 30.8203 36.3694 24 36.3694ZM37.7981 24.5484C38.0606 24.2981 38.2228 23.9447 38.2228 23.5566V23.4806L38.9372 23.5312C38.9194 23.685 38.9091 23.8406 38.9091 23.9991C38.9091 24.1575 38.9194 24.3131 38.9372 24.4669L37.7981 24.5484ZM42.8681 27.3037C41.0466 27.3037 39.5653 25.8216 39.5653 24C39.5653 22.1784 41.0475 20.6962 42.8681 20.6962C44.6888 20.6962 46.1719 22.1784 46.1719 24C46.1719 25.8216 44.6897 27.3037 42.8681 27.3037Z" fill="#9A9A9A"/>
<path d="M5.45414 22.7323C5.45414 21.9401 4.57195 21.4741 3.91195 21.9129C3.16102 22.4126 2.66602 23.2657 2.66602 24.2351C2.66602 24.4001 2.68008 24.5613 2.7082 24.7188C2.99602 26.3651 5.45414 26.112 5.45414 24.4404V22.7323ZM25.4004 5.45414C26.1813 5.45414 26.6604 4.58602 26.2329 3.93164C25.7351 3.16945 24.8754 2.66602 23.8976 2.66602C23.4476 2.66602 23.0229 2.77289 22.646 2.96227C21.4095 3.58383 21.8632 5.45414 23.247 5.45414H25.4004ZM42.5454 25.4032C42.5454 26.1841 43.4135 26.6632 44.0679 26.2357C44.8301 25.7379 45.3335 24.8782 45.3335 23.9004C45.3335 23.2638 45.1207 22.6779 44.7616 22.2091C44.0463 21.2735 42.5463 21.7985 42.5463 22.976V25.4032H42.5454ZM23.4363 42.5454C22.1585 42.5454 21.6663 44.2188 22.7454 44.9023C23.1766 45.1751 23.6866 45.3326 24.2351 45.3326C24.5951 45.3326 24.9382 45.2641 25.2541 45.1404C26.6341 44.5985 26.2395 42.5454 24.7573 42.5454H23.4363Z" fill="#D4E1E8"/>
<path d="M23.9993 12.7793C17.8024 12.7793 12.7793 17.8024 12.7793 23.9993C12.7793 30.1962 17.8024 35.2193 23.9993 35.2193C30.1962 35.2193 35.2193 30.1962 35.2193 23.9993C35.2193 17.8024 30.1962 12.7793 23.9993 12.7793ZM30.1109 30.5299V30.0884C30.1109 27.0443 27.8852 24.5205 24.9724 24.0546C26.1968 23.6468 27.0799 22.4946 27.0799 21.1334C27.0799 19.4318 25.7009 18.0527 23.9993 18.0527C22.2977 18.0527 20.9187 19.4318 20.9187 21.1334C20.9187 22.4946 21.8027 23.6468 23.0262 24.0546C20.1134 24.5205 17.8877 27.0443 17.8877 30.0884V30.5299C16.113 28.8865 15.0021 26.538 15.0021 23.929C15.0021 18.9593 19.0305 14.9309 24.0002 14.9309C28.9699 14.9309 32.9984 18.9593 32.9984 23.929C32.9974 26.5371 31.8855 28.8865 30.1109 30.5299Z" fill="#0166FF"/>
</svg>

<svg xmlns="http://www.w3.org/2000/svg" width="48" height="48" fill="none"><path fill="#9A9A9A" d="M42.868 20.04a3.965 3.965 0 0 0-3.798 2.843l-2.106-.15c-.598-6.173-5.524-11.099-11.697-11.697l-.15-2.106a3.965 3.965 0 0 0 2.843-3.798A3.965 3.965 0 0 0 24 1.172a3.965 3.965 0 0 0-3.96 3.96 3.965 3.965 0 0 0 2.843 3.798l-.15 2.106c-6.173.598-11.099 5.524-11.697 11.697l-2.106.15a3.965 3.965 0 0 0-3.798-2.843A3.965 3.965 0 0 0 1.172 24a3.965 3.965 0 0 0 3.96 3.96 3.965 3.965 0 0 0 3.798-2.843l2.106.15c.598 6.173 5.524 11.099 11.697 11.697l.15 2.106a3.965 3.965 0 0 0-2.843 3.798 3.965 3.965 0 0 0 3.96 3.96 3.965 3.965 0 0 0 3.96-3.96 3.965 3.965 0 0 0-2.843-3.798l.15-2.106c6.173-.598 11.099-5.524 11.697-11.697l2.106-.15a3.965 3.965 0 0 0 3.798 2.843 3.965 3.965 0 0 0 3.96-3.96 3.965 3.965 0 0 0-3.96-3.96M20.696 5.132A3.31 3.31 0 0 1 24 1.828a3.31 3.31 0 0 1 3.304 3.304A3.307 3.307 0 0 1 24 8.435a3.307 3.307 0 0 1-3.304-3.303M24 9.09q.237 0 .468-.028l.081 1.139a1.37 1.37 0 0 0-.991-.425h-.076l.05-.714q.231.028.468.028M5.132 27.304A3.31 3.31 0 0 1 1.828 24a3.31 3.31 0 0 1 3.304-3.304A3.307 3.307 0 0 1 8.435 24a3.307 3.307 0 0 1-3.303 3.304m3.93-3.772 1.14-.081c-.263.25-.425.603-.425.991v.076l-.714-.05a4 4 0 0 0 0-.936m18.242 19.336A3.31 3.31 0 0 1 24 46.172a3.31 3.31 0 0 1-3.304-3.304A3.307 3.307 0 0 1 24 39.565a3.307 3.307 0 0 1 3.304 3.303M24 38.91q-.237 0-.468.028l-.081-1.139c.25.263.603.425.991.425h.076l-.05.714A4 4 0 0 0 24 38.91m0-2.54c-6.82 0-12.37-5.549-12.37-12.369S17.18 11.63 24 11.63 36.37 17.18 36.37 24 30.82 36.37 24 36.37m13.798-11.82c.263-.25.425-.604.425-.992v-.076l.714.05a4 4 0 0 0 0 .936zm5.07 2.755A3.307 3.307 0 0 1 39.565 24a3.307 3.307 0 0 1 3.303-3.304A3.31 3.31 0 0 1 46.172 24a3.31 3.31 0 0 1-3.304 3.304"/><path fill="#D4E1E8" d="M5.454 22.732c0-.792-.882-1.258-1.542-.82a2.79 2.79 0 0 0-1.204 2.807c.288 1.646 2.746 1.393 2.746-.279zM25.4 5.454c.781 0 1.26-.868.833-1.522a2.784 2.784 0 0 0-3.587-.97c-1.236.622-.783 2.492.601 2.492zm17.145 19.95c0 .78.868 1.26 1.523.832a2.784 2.784 0 0 0 .694-4.027c-.716-.936-2.216-.41-2.216.767v2.427M23.436 42.544c-1.277 0-1.77 1.674-.69 2.357.43.273.94.43 1.49.43.36 0 .702-.068 1.018-.192 1.38-.541.985-2.595-.497-2.595z"/><path fill="#0166FF" d="M24 12.78c-6.198 0-11.22 5.022-11.22 11.22 0 6.196 5.022 11.22 11.22 11.22 6.196 0 11.22-5.024 11.22-11.22 0-6.198-5.024-11.22-11.22-11.22m6.11 17.75v-.442a6.11 6.11 0 0 0-5.138-6.033A3.08 3.08 0 0 0 24 18.053a3.08 3.08 0 0 0-.973 6.002 6.11 6.11 0 0 0-5.138 6.033v.442A8.998 8.998 0 0 1 24 14.93a9 9 0 0 1 8.997 8.998 8.98 8.98 0 0 1-2.887 6.6"/></svg>
